X:1
T:Title
%%score { ( 1 3 ) | 2 }
L:1/8
Q:1/4=112
M:4/4
K:F
V:1 treble nm="Grand Piano"
V:3 treble 
V:2 bass 
V:1
 C2 F>A [Ac]2 [_Ad]2 | [Ac]4 F4 | A2 G>F E2 F2 | G2 [Ec]4 z2 | F2 A>B c2 d2 | c4 A4 | %6
w: Thoro~Harris * * * *||||||
 G2 [Gc]>[Ad] [Ge]2 [Fd]2 | [Ec]6 z2 | [GB]2 [EG]>[FA] [GB]2 [Ed]2 | c4 A4 | B2 G>A B2 [_Ae]2 | %11
w: |||||
 d4 c4 | F2 G>[FA] [FB]2 [Fc]2 | [Fd]4 f4 | [FA]2 [EG]>F C2 G2 | [A,F]6 z2 |] %16
w: |||||
V:2
 [F,A,]2 [F,A,C]>[F,F] [F,C]2 [F,=B,]2 | [F,C]4 [F,A,C]4 | [F,CF]2 [G,CE]>[A,C] [B,C]2 [A,C]2 | %3
 [G,=B,F]2[K:bass] [C,_B,]4 z2 | [F,A,]2 [F,F]>[F,G,F] [F,A,F]2 [F,_A,F]2 | [F,A,F]4 [^F,C_E]4 | %6
 [G,CE]2 [E,C]>[F,C] [G,C]2 [G,,=B,]2 | [C,C]6 z2 | [C,C]2 [C,B,]>[C,A,] [C,G,]2 [C,_A,]2 | %9
 [F,A,F]4 [F,CF]4 | [CEG]2 [B,D]>[A,C^F] [G,B,G]2[K:bass] [E,C]2 | [F,A,C]8 | %12
 [_E,A,C]2 [E,G,C]>[E,F,] [D,B,]2 [C,A,]2 | [=B,,_A,]4 [B,,D]4 | %14
 [C,C]2 [^C,B,]>[D,A,D] [E,B,]2 [=C,E,B,]2 | [F,,F,]6 z2 |] %16
V:3
 x8 | x8 | x8 | x8 | x8 | x8 | x8 | x8 | x8 | x8 | x8 | A8 | x8 | x8 | x8 | x8 |] %16

